X:210
T: ICH SCHWING MEIN HORN INS JAMMERTHAL
N: Z0209
O: Europa, Mitteleuropa, Deutschland
R: Jaeger - Lied
M: 2/2
L: 1/8
K: C
 |  |  | C4E2E2 | D4B,2
C2 | B,2G,2A,2A,2 | G,4z2
G,2 | C2D2E4 | D2G3FED | C2D2C4 |
C4E2E2 | D4B,2
C2 | B,2G,2A,2A,2 | G,4z2
G,2 | C2D2E4 | D2G3FED | C2D2C2
E2 | E2E2C2C2 | F4E4 | D4z2
D2 | E4F4 | G6G2 | A2E2F4 | E6
E2 | E4E4 | D6C2 | D2B,2A,4 | G,6
G2 | E4E4 | C4C4 | F4D2E2 | F2G4F2 | G2C2D4 | C8

@@@ Tune index: 9968
